X: 23074
T: Laughing
R: polka
M: 2/4
K: Amajor
|:EA AB|ce cF-|FB B>c|dA cE|
EA AB|ce cF-|FF dc|1 A2 A2:|2 A2 A/B/c||
|:B2 B>A|GE EF/G/|AE BE|cA e2|
B2 B>A|GE EF/G/|1 Bf ec|A2A/B/c:|2 FA dc|A2A2||

